Newaita-dark/apps/128/accessories-dictionary.svg

<?xml version="1.0" encoding="UTF-8"?>
<svg xmlns="http://www.w3.org/2000/svg" xmlns:xlink="http://www.w3.org/1999/xlink" width="128pt" height="128pt" viewBox="0 0 128 128" version="1.1">
<defs>
<linearGradient id="linear0" gradientUnits="userSpaceOnUse" x1="254" y1="233.5" x2="254" y2="254.666672" gradientTransform="matrix(0.250024,0,0,0.250024,-0.0000152602,53.75514)">
<stop offset="0" style="stop-color:rgb(0%,0%,0%);stop-opacity:0.27451;"/>
<stop offset="1" style="stop-color:rgb(0%,0%,0%);stop-opacity:0;"/>
</linearGradient>
<radialGradient id="radial0" gradientUnits="userSpaceOnUse" cx="450.908936" cy="189.579361" fx="450.908936" fy="189.579361" r="21.166656" gradientTransform="matrix(0.000000696681,-0.31253,-0.562554,-0.000000406154,200.584342,254.38133)">
<stop offset="0" style="stop-color:rgb(0%,0%,0%);stop-opacity:0.313725;"/>
<stop offset="0.222222" style="stop-color:rgb(0%,0%,0%);stop-opacity:0.27451;"/>
<stop offset="1" style="stop-color:rgb(0%,0%,0%);stop-opacity:0;"/>
</radialGradient>
<radialGradient id="radial1" gradientUnits="userSpaceOnUse" cx="450.908936" cy="189.579361" fx="450.908936" fy="189.579361" r="21.166656" gradientTransform="matrix(-0.000000696681,0.31253,0.562554,0.000000406154,-73.572195,-30.109921)">
<stop offset="0" style="stop-color:rgb(0%,0%,0%);stop-opacity:0.313725;"/>
<stop offset="0.222222" style="stop-color:rgb(0%,0%,0%);stop-opacity:0.27451;"/>
<stop offset="1" style="stop-color:rgb(0%,0%,0%);stop-opacity:0;"/>
</radialGradient>
<radialGradient id="radial2" gradientUnits="userSpaceOnUse" cx="450.908936" cy="189.579361" fx="450.908936" fy="189.579361" r="21.166656" gradientTransform="matrix(-0.000000696681,-0.31253,0.562554,-0.000000406154,-73.572195,254.38133)">
<stop offset="0" style="stop-color:rgb(0%,0%,0%);stop-opacity:0.313725;"/>
<stop offset="0.222222" style="stop-color:rgb(0%,0%,0%);stop-opacity:0.27451;"/>
<stop offset="1" style="stop-color:rgb(0%,0%,0%);stop-opacity:0;"/>
</radialGradient>
<radialGradient id="radial3" gradientUnits="userSpaceOnUse" cx="450.908936" cy="189.579361" fx="450.908936" fy="189.579361" r="21.166656" gradientTransform="matrix(0.000000696681,0.31253,-0.562554,0.000000406154,200.584335,-30.109917)">
<stop offset="0" style="stop-color:rgb(0%,0%,0%);stop-opacity:0.313725;"/>
<stop offset="0.222222" style="stop-color:rgb(0%,0%,0%);stop-opacity:0.27451;"/>
<stop offset="1" style="stop-color:rgb(0%,0%,0%);stop-opacity:0;"/>
</radialGradient>
<linearGradient id="linear1" gradientUnits="userSpaceOnUse" x1="306.916656" y1="-25.791676" x2="305.954559" y2="-141.414581" gradientTransform="matrix(0.301399,0,0,0.869648,-23.416052,134.565393)">
<stop offset="0" style="stop-color:rgb(81.176471%,84.705882%,86.27451%);stop-opacity:1;"/>
<stop offset="1" style="stop-color:rgb(92.54902%,93.72549%,94.509804%);stop-opacity:1;"/>
</linearGradient>
<linearGradient id="linear2" gradientUnits="userSpaceOnUse" x1="165.484848" y1="-25.791672" x2="165.484848" y2="-141.414581" gradientTransform="matrix(4.556143,0,0,13.146184,-353.972656,2034.180176)">
<stop offset="0" style="stop-color:rgb(47.058824%,56.470588%,61.176471%);stop-opacity:1;"/>
<stop offset="1" style="stop-color:rgb(56.470588%,64.313725%,68.235294%);stop-opacity:1;"/>
</linearGradient>
<linearGradient id="linear3" gradientUnits="userSpaceOnUse" x1="840" y1="1115.117188" x2="840" y2="175.117218" gradientTransform="matrix(1,0,0,1,-79.999962,0.000907087)">
<stop offset="0" style="stop-color:rgb(93.72549%,32.54902%,31.372549%);stop-opacity:1;"/>
<stop offset="1" style="stop-color:rgb(89.803922%,45.098039%,45.098039%);stop-opacity:1;"/>
</linearGradient>
</defs>
<g id="surface1">
<path style=" stroke:none;fill-rule:nonzero;fill:url(#linear0);" d="M 31.753906 112.136719 L 95.257812 112.136719 L 95.257812 117.429688 L 31.753906 117.429688 Z M 31.753906 112.136719 "/>
<path style=" stroke:none;fill-rule:nonzero;fill:url(#radial0);" d="M 95.257812 112.136719 L 105.84375 112.136719 L 105.84375 106.84375 L 95.257812 106.84375 Z M 95.257812 112.136719 "/>
<path style=" stroke:none;fill-rule:nonzero;fill:url(#radial1);" d="M 31.753906 112.136719 L 21.167969 112.136719 L 21.167969 117.429688 L 31.753906 117.429688 Z M 31.753906 112.136719 "/>
<path style=" stroke:none;fill-rule:nonzero;fill:url(#radial2);" d="M 31.753906 112.136719 L 21.167969 112.136719 L 21.167969 106.84375 L 31.753906 106.84375 Z M 31.753906 112.136719 "/>
<path style=" stroke:none;fill-rule:nonzero;fill:url(#radial3);" d="M 95.257812 112.136719 L 105.84375 112.136719 L 105.84375 117.429688 L 95.257812 117.429688 Z M 95.257812 112.136719 "/>
<path style=" stroke:none;fill-rule:nonzero;fill:url(#linear1);" d="M 26.460938 11.585938 L 100.550781 11.585938 C 103.472656 11.585938 105.84375 13.953125 105.84375 16.875 L 105.84375 106.84375 C 105.84375 109.765625 103.472656 112.136719 100.550781 112.136719 L 26.460938 112.136719 C 23.539062 112.136719 21.167969 109.765625 21.167969 106.84375 L 21.167969 16.875 C 21.167969 13.953125 23.539062 11.585938 26.460938 11.585938 Z M 26.460938 11.585938 "/>
<path style=" stroke:none;fill-rule:nonzero;fill:rgb(25.882354%,25.882354%,25.882354%);fill-opacity:0.905882;" d="M 50.277344 45.984375 L 82.027344 45.984375 C 83.488281 45.984375 84.675781 47.167969 84.675781 48.628906 C 84.675781 50.089844 83.488281 51.277344 82.027344 51.277344 L 50.277344 51.277344 C 48.8125 51.277344 47.628906 50.089844 47.628906 48.628906 C 47.628906 47.167969 48.8125 45.984375 50.277344 45.984375 Z M 50.277344 45.984375 "/>
<path style="fill-rule:nonzero;fill:url(#linear2);stroke-width:11.338583;stroke-linecap:round;stroke-linejoin:miter;stroke:rgb(12.941177%,12.941177%,12.941177%);stroke-opacity:1;stroke-miterlimit:4;" d="M 400.001193 175.140764 C 355.655032 175.140764 319.989144 210.806652 319.989144 255.093763 L 319.989144 1615.121439 C 319.989144 1659.408551 355.655032 1695.133488 400.001193 1695.133488 L 519.989741 1695.133488 L 519.989741 175.140764 Z M 400.001193 175.140764 " transform="matrix(0.0661521,0,0,0.0661521,0,0)"/>
<path style=" stroke:none;fill-rule:nonzero;fill:rgb(0%,0%,0%);fill-opacity:0.196078;" d="M 26.460938 111.835938 C 23.527344 111.835938 21.167969 109.476562 21.167969 106.542969 L 21.167969 105.882812 C 21.167969 108.816406 23.527344 111.175781 26.460938 111.175781 L 100.550781 111.175781 C 103.484375 111.175781 105.84375 108.816406 105.84375 105.882812 L 105.84375 106.542969 C 105.84375 109.476562 103.484375 111.835938 100.550781 111.835938 Z M 26.460938 111.835938 "/>
<path style=" stroke:none;fill-rule:nonzero;fill:rgb(25.882354%,25.882354%,25.882354%);fill-opacity:0.905882;" d="M 50.277344 32.753906 L 82.027344 32.753906 C 83.488281 32.753906 84.675781 33.9375 84.675781 35.398438 C 84.675781 36.859375 83.488281 38.046875 82.027344 38.046875 L 50.277344 38.046875 C 48.8125 38.046875 47.628906 36.859375 47.628906 35.398438 C 47.628906 33.9375 48.8125 32.753906 50.277344 32.753906 Z M 50.277344 32.753906 "/>
<path style=" stroke:none;fill-rule:nonzero;fill:rgb(25.882354%,25.882354%,25.882354%);fill-opacity:0.905882;" d="M 50.277344 59.214844 L 82.027344 59.214844 C 83.488281 59.214844 84.675781 60.398438 84.675781 61.859375 C 84.675781 63.320312 83.488281 64.507812 82.027344 64.507812 L 50.277344 64.507812 C 48.8125 64.507812 47.628906 63.320312 47.628906 61.859375 C 47.628906 60.398438 48.8125 59.214844 50.277344 59.214844 Z M 50.277344 59.214844 "/>
<path style="fill-rule:nonzero;fill:url(#linear3);stroke-width:11.338583;stroke-linecap:round;stroke-linejoin:round;stroke:rgb(12.941177%,12.941177%,12.941177%);stroke-opacity:1;stroke-miterlimit:4;" d="M 680.013838 175.140764 L 680.013838 1135.108198 C 740.008112 975.14315 779.984611 975.14315 839.978885 1135.108198 L 839.978885 175.140764 Z M 680.013838 175.140764 " transform="matrix(0.0661521,0,0,0.0661521,0,0)"/>
<path style=" stroke:none;fill-rule:nonzero;fill:rgb(100%,100%,100%);fill-opacity:0.392157;" d="M 26.460938 11.882812 C 23.527344 11.882812 21.167969 14.242188 21.167969 17.175781 L 21.167969 17.835938 C 21.167969 14.90625 23.527344 12.539062 26.460938 12.542969 L 100.550781 12.542969 C 103.484375 12.539062 105.84375 14.90625 105.84375 17.835938 L 105.84375 17.175781 C 105.84375 14.242188 103.484375 11.882812 100.550781 11.882812 Z M 26.460938 11.882812 "/>
<path style=" stroke:none;fill-rule:nonzero;fill:rgb(12.941177%,12.941177%,12.941177%);fill-opacity:1;" d="M 26.460938 11.210938 C 23.328125 11.210938 20.792969 13.742188 20.792969 16.875 L 20.792969 106.84375 C 20.792969 109.976562 23.328125 112.511719 26.460938 112.511719 L 100.550781 112.511719 C 103.683594 112.511719 106.21875 109.976562 106.21875 106.84375 L 106.21875 16.875 C 106.21875 13.742188 103.683594 11.210938 100.550781 11.210938 Z M 26.460938 11.960938 L 100.550781 11.960938 C 103.28125 11.960938 105.46875 14.144531 105.46875 16.875 L 105.46875 106.84375 C 105.46875 109.574219 103.28125 111.761719 100.550781 111.761719 L 26.460938 111.761719 C 23.730469 111.761719 21.542969 109.574219 21.542969 106.84375 L 21.542969 16.875 C 21.542969 14.144531 23.730469 11.960938 26.460938 11.960938 Z M 26.460938 11.960938 "/>
</g>
</svg>

<svg xmlns="http://www.w3.org/2000/svg" width="128pt" height="128pt" viewBox="0 0 128 128"><defs><linearGradient id="a" gradientUnits="userSpaceOnUse" x1="254" y1="233.5" x2="254" y2="254.667" gradientTransform="matrix(.25002 0 0 .25002 0 53.755)"><stop offset="0" stop-opacity=".275"/><stop offset="1" stop-opacity="0"/></linearGradient><radialGradient id="b" gradientUnits="userSpaceOnUse" cx="450.909" cy="189.579" fx="450.909" fy="189.579" r="21.167" gradientTransform="matrix(0 -.31253 -.56255 0 200.584 254.381)"><stop offset="0" stop-opacity=".314"/><stop offset=".222" stop-opacity=".275"/><stop offset="1" stop-opacity="0"/></radialGradient><radialGradient id="c" gradientUnits="userSpaceOnUse" cx="450.909" cy="189.579" fx="450.909" fy="189.579" r="21.167" gradientTransform="matrix(0 .31253 .56255 0 -73.572 -30.11)"><stop offset="0" stop-opacity=".314"/><stop offset=".222" stop-opacity=".275"/><stop offset="1" stop-opacity="0"/></radialGradient><radialGradient id="d" gradientUnits="userSpaceOnUse" cx="450.909" cy="189.579" fx="450.909" fy="189.579" r="21.167" gradientTransform="matrix(0 -.31253 .56255 0 -73.572 254.381)"><stop offset="0" stop-opacity=".314"/><stop offset=".222" stop-opacity=".275"/><stop offset="1" stop-opacity="0"/></radialGradient><radialGradient id="e" gradientUnits="userSpaceOnUse" cx="450.909" cy="189.579" fx="450.909" fy="189.579" r="21.167" gradientTransform="matrix(0 .31253 -.56255 0 200.584 -30.11)"><stop offset="0" stop-opacity=".314"/><stop offset=".222" stop-opacity=".275"/><stop offset="1" stop-opacity="0"/></radialGradient><linearGradient id="f" gradientUnits="userSpaceOnUse" x1="306.917" y1="-25.792" x2="305.955" y2="-141.415" gradientTransform="matrix(.3014 0 0 .86965 -23.416 134.565)"><stop offset="0" stop-color="#cfd8dc"/><stop offset="1" stop-color="#eceff1"/></linearGradient><linearGradient id="g" gradientUnits="userSpaceOnUse" x1="165.485" y1="-25.792" x2="165.485" y2="-141.415" gradientTransform="matrix(4.55614 0 0 13.14618 -353.973 2034.18)"><stop offset="0" stop-color="#78909c"/><stop offset="1" stop-color="#90a4ae"/></linearGradient><linearGradient id="h" gradientUnits="userSpaceOnUse" x1="840" y1="1115.117" x2="840" y2="175.117" gradientTransform="translate(-80)"><stop offset="0" stop-color="#ef5350"/><stop offset="1" stop-color="#e57373"/></linearGradient></defs><path d="M31.754 112.137h63.504v5.293H31.754zm0 0" fill="url(#a)"/><path d="M95.258 112.137h10.586v-5.293H95.258zm0 0" fill="url(#b)"/><path d="M31.754 112.137H21.168v5.293h10.586zm0 0" fill="url(#c)"/><path d="M31.754 112.137H21.168v-5.293h10.586zm0 0" fill="url(#d)"/><path d="M95.258 112.137h10.586v5.293H95.258zm0 0" fill="url(#e)"/><path d="M26.46 11.586h74.09a5.291 5.291 0 0 1 5.294 5.289v89.969a5.295 5.295 0 0 1-5.293 5.293H26.46a5.295 5.295 0 0 1-5.293-5.293V16.875a5.291 5.291 0 0 1 5.293-5.29zm0 0" fill="url(#f)"/><path d="M50.277 45.984h31.75a2.647 2.647 0 0 1 2.649 2.645 2.65 2.65 0 0 1-2.649 2.648h-31.75a2.648 2.648 0 0 1-2.648-2.648 2.645 2.645 0 0 1 2.648-2.645zm0 0" fill="#424242" fill-opacity=".906"/><path d="M400.001 175.14c-44.346 0-80.012 35.667-80.012 79.954V1615.12c0 44.288 35.666 80.012 80.012 80.012H519.99V175.141zm0 0" transform="scale(.06615)" fill="url(#g)" stroke-width="11.339" stroke-linecap="round" stroke="#212121"/><path d="M26.46 111.836a5.28 5.28 0 0 1-5.292-5.293v-.66a5.28 5.28 0 0 0 5.293 5.293h74.09a5.28 5.28 0 0 0 5.293-5.293v.66a5.28 5.28 0 0 1-5.293 5.293zm0 0" fill-opacity=".196"/><path d="M50.277 32.754h31.75a2.647 2.647 0 0 1 2.649 2.644 2.65 2.65 0 0 1-2.649 2.649h-31.75a2.648 2.648 0 0 1-2.648-2.649 2.645 2.645 0 0 1 2.648-2.644zm0 0M50.277 59.215h31.75a2.647 2.647 0 0 1 2.649 2.644 2.65 2.65 0 0 1-2.649 2.649h-31.75a2.648 2.648 0 0 1-2.648-2.649 2.645 2.645 0 0 1 2.648-2.644zm0 0" fill="#424242" fill-opacity=".906"/><path d="M680.014 175.14v959.968c59.994-159.965 99.97-159.965 159.965 0V175.141zm0 0" transform="scale(.06615)" fill="url(#h)" stroke-width="11.339" stroke-linecap="round" stroke-linejoin="round" stroke="#212121"/><path d="M26.46 11.883a5.28 5.28 0 0 0-5.292 5.293v.66a5.28 5.28 0 0 1 5.293-5.293h74.09a5.28 5.28 0 0 1 5.293 5.293v-.66a5.28 5.28 0 0 0-5.293-5.293zm0 0" fill="#fff" fill-opacity=".392"/><path d="M26.46 11.21a5.661 5.661 0 0 0-5.667 5.665v89.969a5.665 5.665 0 0 0 5.668 5.668h74.09a5.665 5.665 0 0 0 5.668-5.668V16.875a5.661 5.661 0 0 0-5.668-5.664zm0 .75h74.09a4.896 4.896 0 0 1 4.919 4.915v89.969a4.9 4.9 0 0 1-4.918 4.918H26.46a4.9 4.9 0 0 1-4.918-4.918V16.875a4.896 4.896 0 0 1 4.918-4.914zm0 0" fill="#212121"/></svg>
